X:1
T:Title
%%score { ( 1 4 ) | ( 2 3 ) }
L:1/8
M:6/4
K:A
V:1 treble nm="Grand Piano"
V:4 treble 
V:2 bass 
V:3 bass 
V:1
 z6[Q:1/4=118] c2 | c4 c2 c4 B2 | A4 F2 F4 F2 | E4 A2 B2 A2 B2 | c6- c4 c2 | B4 c2 d2 c2 B2 | %6
 z6 .B6 | E2 A2 c2 B2 A2 B2 |[M:5/4] [CA]2- [CA]2- [CA]6 |] %9
V:2
 z6 [A,E]2 | [A,E]4 [A,E]2 [A,E]4 [E,G,D]2 | [F,A,C]4 [D,A,D]2 [D,A,D]4 [D,A,D]2 | %3
 [C,A,]4 [E,A,C]2 [E,E]2- [E,F,E]2 [E,G,E]2 | [A,E]6- [A,E]4 [A,E]2 | z6 .B,6 | %6
 C,4 A,,2 D,4 [D,A,D]2 | z6 .[G,D]6 |[M:5/4] [A,,A,]2- [A,,A,]2- [A,,A,]6 |] %9
V:3
 x8 | x12 | x12 | z6 .G,6 | x12 | [E,G,E]4 [E,A,E]2 [E,E]2- [E,A,E]2 [E,G,E]2 | x12 | %7
 [E,A,C]4 [E,A,E]2 E,2- [E,A,C]2 [E,G,D]2 |[M:5/4] x10 |] %9
V:4
 x8 | x12 | x12 | x12 | x12 | x12 | [A,EA]4 [CEA]2 [DF]2- [DFA]2 F2 | x12 |[M:5/4] x10 |] %9

